;FLAVOR:Marlin
;TIME:7742
;Filament used: 0.939331m
;Layer height: 0.1
;Extruders used: T0 0.4
;BCN3D_FIXES
;Generated with Cura_SteamEngine 2.1.5
T0
M190 S60
M104 S185
M109 S185
M82 ;absolute extrusion mode
;Sigma ProGen 2.2.0 (Build 14CJ1301)
;BCN3D Fixes applied
; - Fix Acceleration/Jerk commands
; - Z Hop At Layer Change

G21          ;metric values
G90          ;absolute positioning
M204 S600 ;set default acceleration
M205 X12.5 Y12.5 ;set default jerk
M107         ;start with the fan off
G28 X0 Y0    ;move X/Y to min endstops
G28 Z0       ;move Z to min endstops
G1 Z5 F200   ;safety Z axis movement
T1           ;switch to the right extruder
G92 E0       ;zero the extruded length

G92 E0       
G4 P2000     ;stabilize hotend's pressure
T0           ;switch to the left extruder
G92 E0       ;zero the extruded length
G1 F47.4 E15 ;extrude 15mm of feed stock
G92 E0
G4 P2000     ;stabilize hotend's pressure


M92 E510.9
M500
G4 P1
G4 P2
G4 P3

;LAYER_COUNT:100
;LAYER:0
M107
M204 S1088
M205 X9.38 Y9.38
G0 F3600 X118.732 Y184.542 Z0.2
M204 S435
;TYPE:SKIRT
G1 F900 X118.194 Y184.451 E0.00821
G1 X117.676 Y184.283 E0.01641
G1 X117.188 Y184.04 E0.02461
G1 X116.74 Y183.729 E0.03282
G1 X116.453 Y183.469 E0.03864
G1 X64.139 Y131.154 E1.15199
G1 X63.973 Y130.978 E1.15563
G1 X59.739 Y126.155 E1.25221
G1 X59.352 Y125.626 E1.26207
G1 X58.654 Y124.472 E1.28236
G1 X58.407 Y123.986 E1.29057
G1 X58.309 Y123.726 E1.29475
G1 X58.042 Y122.927 E1.30743
G1 X57.907 Y122.399 E1.31563
G1 X57.864 Y122.066 E1.32068
G1 X57.764 Y120.899 E1.33831
G1 X57.775 Y120.146 E1.34964
G1 X57.871 Y119.33 E1.362
G1 X57.987 Y118.752 E1.37087
G1 X58.141 Y118.208 E1.37938
G1 X58.348 Y117.651 E1.38832
G1 X58.673 Y116.953 E1.39991
G1 X58.932 Y116.486 E1.40795
G1 X59.292 Y115.936 E1.41784
G1 X59.781 Y115.337 E1.42948
G1 X60.665 Y114.457 E1.44825
G1 X61.078 Y114.101 E1.45645
G1 X61.531 Y113.815 E1.46451
G1 X62.827 Y113.12 E1.48664
G1 X63.325 Y112.898 E1.49485
G1 X63.74 Y112.775 E1.50136
G1 X64.477 Y112.603 E1.51275
G1 X64.992 Y112.521 E1.5206
G1 X65.711 Y112.457 E1.53146
G1 X66.041 Y112.442 E1.53643
G1 X146.937 Y112.448 E2.75379
G1 X147.743 Y112.536 E2.76599
G1 X148.144 Y112.625 E2.77217
G1 X148.666 Y112.782 E2.78038
G1 X149.034 Y112.946 E2.78644
G1 X149.477 Y113.173 E2.79393
G1 X149.943 Y113.457 E2.80214
G1 X150.493 Y113.938 E2.81314
G1 X150.986 Y114.463 E2.82398
G1 X151.329 Y114.886 E2.83217
G1 X151.717 Y115.602 E2.84443
G1 X151.932 Y116.128 E2.85298
G1 X152.101 Y116.646 E2.86118
G1 X152.192 Y117.183 E2.86937
G1 X152.209 Y117.527 E2.87456
G1 X152.234 Y129.34 E3.05232
G1 X152.195 Y129.884 E3.06053
G1 X152.077 Y130.416 E3.06873
G1 X151.883 Y130.926 E3.07694
G1 X151.565 Y131.477 E3.08652
G1 X151.17 Y132.043 E3.0969
G1 X150.816 Y132.476 E3.10532
G1 X149.397 Y133.969 E3.13631
G1 X145.808 Y138.084 E3.21848
G1 X142.464 Y142.383 E3.30044
G1 X139.366 Y146.867 E3.38246
G1 X136.534 Y151.51 E3.4643
G1 X133.955 Y156.328 E3.54654
G1 X131.669 Y161.251 E3.62822
G1 X129.634 Y166.372 E3.71114
G1 X128.767 Y168.862 E3.75082
G1 X127.185 Y174.101 E3.83318
G1 X126.15 Y178.277 E3.89792
G1 X125.98 Y178.795 E3.90612
G1 X125.737 Y179.283 E3.91433
G1 X125.424 Y179.73 E3.92254
G1 X125.17 Y180.012 E3.92825
G1 X121.714 Y183.469 E4.00181
G1 X121.301 Y183.825 E4.01002
G1 X120.841 Y184.117 E4.01821
G1 X120.343 Y184.339 E4.02642
G1 X119.818 Y184.486 E4.03462
G1 X119.356 Y184.545 E4.04163
G0 F810 X119.277 Y184.554
G0 X118.732 Y184.542
M204 S1088
G0 F3600 X118.575 Y184.039
M204 S435
G1 F1050 E4.05104
G1 F900 X118.08 Y183.92 E4.0587
G1 X117.61 Y183.725 E4.06636
G1 X117.177 Y183.459 E4.074
G1 X116.792 Y183.13 E4.08162
G1 X64.478 Y130.815 E5.19497
G1 X64.334 Y130.662 E5.19813
G1 X60.1 Y125.839 E5.29471
G1 X59.763 Y125.378 E5.3033
G1 X59.065 Y124.224 E5.3236
G1 X58.764 Y123.574 E5.33437
G1 X58.497 Y122.775 E5.34705
G1 X58.374 Y122.281 E5.35471
G1 X58.342 Y122.025 E5.3586
G1 X58.242 Y120.858 E5.37622
G1 X58.252 Y120.202 E5.38609
G1 X58.348 Y119.386 E5.39846
G1 X58.449 Y118.882 E5.40619
G1 X58.603 Y118.338 E5.4147
G1 X58.783 Y117.853 E5.42249
G1 X59.108 Y117.155 E5.43407
G1 X59.334 Y116.749 E5.44107
G1 X59.694 Y116.199 E5.45096
G1 X60.119 Y115.677 E5.46109
G1 X61.003 Y114.797 E5.47986
G1 X61.391 Y114.467 E5.48752
G1 X61.758 Y114.238 E5.49403
G1 X63.054 Y113.543 E5.51616
G1 X63.52 Y113.338 E5.52382
G1 X63.849 Y113.243 E5.52898
G1 X64.586 Y113.071 E5.54037
G1 X65.035 Y112.999 E5.54721
G1 X65.754 Y112.935 E5.55807
G1 X66.041 Y112.922 E5.56239
G1 X146.937 Y112.928 E6.77975
G1 X147.639 Y113.005 E6.79038
G1 X148.04 Y113.094 E6.79656
G1 X148.526 Y113.243 E6.80421
G1 X148.816 Y113.374 E6.809
G1 X149.259 Y113.601 E6.81649
G1 X149.692 Y113.867 E6.82414
G1 X150.143 Y114.266 E6.8332
G1 X150.636 Y114.791 E6.84404
G1 X150.954 Y115.188 E6.85169
G1 X151.273 Y115.783 E6.86185
G1 X151.488 Y116.309 E6.8704
G1 X151.643 Y116.794 E6.87807
G1 X151.729 Y117.528 E6.88919
G1 X151.754 Y129.341 E7.06695
G1 X151.715 Y129.848 E7.07461
G1 X151.597 Y130.343 E7.08226
G1 X151.404 Y130.814 E7.08992
G1 X151.171 Y131.202 E7.09673
G1 X150.776 Y131.768 E7.10712
G1 X150.468 Y132.146 E7.11446
G1 X149.05 Y133.638 E7.14543
G1 X145.424 Y137.795 E7.22844
G1 X142.084 Y142.089 E7.31031
G1 X138.958 Y146.615 E7.39308
G1 X136.11 Y151.282 E7.47536
G1 X133.535 Y156.093 E7.55747
G1 X131.227 Y161.065 E7.63996
G1 X129.185 Y166.203 E7.72317
G1 X128.314 Y168.703 E7.763
G1 X126.719 Y173.987 E7.84606
G1 X125.684 Y178.162 E7.91079
G1 X125.523 Y178.644 E7.91844
G1 X125.289 Y179.096 E7.9261
G1 X124.83 Y179.673 E7.93719
G1 X121.374 Y183.13 E8.01075
G1 X120.988 Y183.46 E8.0184
G1 X120.554 Y183.726 E8.02606
G1 X120.084 Y183.921 E8.03371
G1 X119.589 Y184.039 E8.04137
G1 X119.198 Y184.07 E8.04727
G0 F810 X119.082 Y184.079
G0 X118.575 Y184.039
M204 S1088
G1 F2100 E1.54727
G0 F3600 X119.083 Y179.856
G0 X121.472 Y177.387
G0 X122.208 Y177.387
M204 S435
;TYPE:WALL-OUTER
G1 F1050 E8.05668
G1 F900 X119.083 Y180.512 E8.12319
G1 X67.097 Y128.526 E9.22954
G1 X70.222 Y125.401 E9.29604
G1 X121.767 Y176.946 E10.39301
G0 F810 X122.208 Y177.387
M204 S1088
G0 F3600 X122.067 Y177.528
G0 X121.572 Y177.387
M204 S435
;TYPE:WALL-INNER
G1 F1050 E10.40241
G1 F900 X119.083 Y179.876 E10.44876
G1 X67.733 Y128.526 E11.40498
G1 X70.222 Y126.037 E11.45132
G1 X121.068 Y176.883 E12.39815
G0 F810 X121.572 Y177.387
M204 S1088
G0 F3600 X120.978 Y177.387
M204 S435
G1 F1050 E12.40756
G1 F900 X119.083 Y179.282 E12.44284
G1 X68.327 Y128.526 E13.388
G1 X70.222 Y126.631 E13.42328
G1 X120.474 Y176.883 E14.35905
G0 F810 X120.978 Y177.387
M204 S1088
G0 F3600 X120.384 Y177.387
M204 S435
G1 F1050 E14.36845
G1 F900 X119.083 Y178.688 E14.39268
G1 X68.921 Y128.526 E15.32677
G1 X70.222 Y127.225 E15.351
G1 X119.88 Y176.883 E16.2757
G0 F810 X120.384 Y177.387
M204 S1088
G0 F3600 X119.762 Y177.387
M204 S435
;TYPE:SKIN
G1 F1050 E16.28511
G1 F900 X119.083 Y178.066 E16.29956
G1 X69.543 Y128.526 E17.35385
G1 X70.222 Y127.847 E17.3683
G1 X119.321 Y176.946 E18.41321
G0 F810 X119.762 Y177.387
M204 S1088
G0 F3600 X119.884 Y177.584
G1 F1050 E18.42262
G1 F900 X119.743 Y177.726 E18.42382
G1 X119.602 Y177.867 E18.42502
G1 X119.46 Y178.009 E18.42623
G1 X119.319 Y178.15 E18.42743
G1 X119.177 Y178.291 E18.42863
G0 F3600 X119.104 Y178.501
M204 S435
;TYPE:SKIN
G1 F900 X69.106 Y128.503 E18.87198
M204 S1088
G0 F3600 X69.316 Y128.43
G1 F900 X69.457 Y128.288 E18.87318
G1 X69.598 Y128.147 E18.87437
G1 X69.74 Y128.006 E18.87557
G1 X69.881 Y127.864 E18.87677
G1 X70.023 Y127.723 E18.87797
G0 F3600 X70.096 Y127.513
M204 S435
G1 F900 X120.094 Y177.511 E19.32132
M204 S1088
G0 F3600 X119.478 Y177.461
M204 S435
G1 F900 X70.147 Y128.129 E19.75876
M204 S1088
G0 F3600 X70.005 Y128.271
M204 S435
G1 F900 X119.336 Y177.602 E20.1962
M204 S1088
G0 F3600 X119.195 Y177.744
M204 S435
G1 F900 X69.864 Y128.412 E20.63364
M204 S1088
G1 F2100 E14.13364
G0 F3600 X70.222 Y126.057
G0 X68.663 Y123.628
G0 X69.442 Y122.525
G0 X69.799 Y121.53
G0 X69.871 Y120.49
G0 X69.66 Y119.469
G0 X69.182 Y118.543
G0 X68.471 Y117.78
G0 X67.579 Y117.238
G0 X66.767 Y117.01
G0 X65.81 Y116.864
G0 X65.822 Y117.414
M204 S435
;TYPE:WALL-OUTER
G1 F1050 E20.63364
G1 F900 X65.591 Y117.439 E20.63714
G1 X65.364 Y117.479 E20.64061
G1 X65.139 Y117.534 E20.64409
G1 X64.918 Y117.605 E20.64758
G1 X64.703 Y117.69 E20.65106
G1 X64.494 Y117.792 E20.65456
G1 X64.294 Y117.906 E20.65803
G1 X64.1 Y118.035 E20.66153
G1 X63.919 Y118.176 E20.66499
G1 X63.745 Y118.33 E20.66848
G1 X63.584 Y118.496 E20.67196
G1 X63.434 Y118.672 E20.67544
G1 X63.297 Y118.858 E20.67892
G1 X63.172 Y119.053 E20.6824
G1 X63.062 Y119.257 E20.68589
G1 X62.965 Y119.468 E20.68939
G1 X62.884 Y119.685 E20.69287
G1 X62.819 Y119.907 E20.69635
G1 X62.768 Y120.132 E20.69982
G1 X62.733 Y120.361 E20.70331
G1 X62.713 Y120.604 E20.70698
G1 X62.711 Y120.836 E20.71047
G1 X62.725 Y121.067 E20.71395
G1 X62.755 Y121.295 E20.71741
G1 X62.8 Y121.523 E20.72091
G1 X62.863 Y121.746 E20.7244
G1 X62.939 Y121.964 E20.72787
G1 X63.031 Y122.176 E20.73135
G1 X63.137 Y122.381 E20.73482
G1 X63.257 Y122.58 E20.73832
G1 X63.391 Y122.768 E20.7418
G1 X63.536 Y122.948 E20.74527
G1 X63.695 Y123.116 E20.74875
G1 X63.865 Y123.275 E20.75226
G1 X64.045 Y123.419 E20.75573
G1 X64.235 Y123.552 E20.75922
G1 X64.434 Y123.67 E20.7627
G1 X64.639 Y123.775 E20.76616
G1 X64.852 Y123.866 E20.76965
G1 X65.07 Y123.941 E20.77312
G1 X65.293 Y124.002 E20.7766
G1 X65.521 Y124.046 E20.78009
G1 X65.751 Y124.075 E20.78358
G1 X65.982 Y124.087 E20.78706
G1 X66.213 Y124.084 E20.79054
G1 X66.443 Y124.064 E20.79401
G1 X66.673 Y124.029 E20.79751
G1 X66.898 Y123.978 E20.80098
G1 X67.12 Y123.912 E20.80447
G1 X67.335 Y123.831 E20.80793
G1 X67.546 Y123.734 E20.81142
G1 X67.75 Y123.624 E20.81491
G1 X67.945 Y123.499 E20.8184
G1 X68.13 Y123.361 E20.82187
G1 X68.306 Y123.211 E20.82535
G1 X68.471 Y123.048 E20.82884
G1 X68.625 Y122.875 E20.83232
G1 X68.765 Y122.692 E20.83579
G1 X68.894 Y122.5 E20.83927
G1 X69.008 Y122.298 E20.84276
G1 X69.109 Y122.09 E20.84624
G1 X69.194 Y121.875 E20.84972
G1 X69.265 Y121.654 E20.85321
G1 X69.319 Y121.43 E20.85668
G1 X69.359 Y121.202 E20.86017
G1 X69.383 Y120.972 E20.86365
G1 X69.39 Y120.741 E20.86712
G1 X69.383 Y120.522 E20.87042
G1 X69.36 Y120.298 E20.87381
G1 X69.322 Y120.073 E20.87724
G1 X69.268 Y119.851 E20.88068
G1 X69.199 Y119.633 E20.88412
G1 X69.115 Y119.421 E20.88755
G1 X69.018 Y119.215 E20.89098
G1 X68.906 Y119.016 E20.89442
G1 X68.781 Y118.825 E20.89785
G1 X68.645 Y118.644 E20.90126
G1 X68.495 Y118.471 E20.9047
G1 X68.333 Y118.309 E20.90815
G1 X68.161 Y118.16 E20.91158
G1 X67.98 Y118.021 E20.91501
G1 X67.788 Y117.896 E20.91846
G1 X67.589 Y117.785 E20.92189
G1 X67.384 Y117.687 E20.92531
G1 X67.172 Y117.603 E20.92874
G1 X66.954 Y117.534 E20.93218
G1 X66.733 Y117.479 E20.93561
G1 X66.508 Y117.44 E20.93904
G1 X66.446 Y117.433 E20.93998
G0 F810 X66.281 Y117.416
G0 X66.054 Y117.409
G0 X65.822 Y117.414
M204 S1088
G0 F3600 X65.623 Y117.435
G0 X65.528 Y116.993
M204 S435
;TYPE:WALL-INNER
G1 F1050 E20.94939
G1 F900 X65.516 Y116.995 E20.94955
G1 X65.271 Y117.038 E20.95282
G1 X65.017 Y117.101 E20.95627
G1 X64.766 Y117.181 E20.95974
G1 X64.521 Y117.278 E20.96321
G1 X64.284 Y117.394 E20.96668
G1 X64.058 Y117.523 E20.97011
G1 X63.837 Y117.67 E20.9736
G1 X63.631 Y117.83 E20.97704
G1 X63.434 Y118.004 E20.9805
G1 X63.263 Y118.181 E20.98374
G1 X63.251 Y118.193 E20.98396
G1 X63.081 Y118.392 E20.98741
G1 X63.071 Y118.406 E20.98763
G1 X62.926 Y118.603 E20.99086
G1 X62.784 Y118.824 E20.99431
G1 X62.659 Y119.056 E20.99778
G1 X62.549 Y119.295 E21.00125
G1 X62.457 Y119.543 E21.00473
G1 X62.383 Y119.794 E21.00818
G1 X62.326 Y120.048 E21.01161
G1 X62.286 Y120.308 E21.01507
G1 X62.263 Y120.584 E21.01872
G1 X62.262 Y120.828 E21.02193
G1 X62.261 Y120.848 E21.02219
G1 X62.277 Y121.11 E21.02565
G1 X62.306 Y121.333 E21.02861
G1 X62.311 Y121.368 E21.02908
G1 X62.36 Y121.618 E21.03243
G1 X62.362 Y121.628 E21.03256
G1 X62.434 Y121.881 E21.03603
G1 X62.51 Y122.099 E21.03907
G1 X62.52 Y122.128 E21.03947
G1 X62.624 Y122.369 E21.04293
G1 X62.731 Y122.577 E21.04601
G1 X62.744 Y122.601 E21.04637
G1 X62.874 Y122.815 E21.04966
G1 X62.881 Y122.827 E21.04985
G1 X63.022 Y123.026 E21.05306
G1 X63.032 Y123.04 E21.05329
G1 X63.188 Y123.233 E21.05655
G1 X63.197 Y123.244 E21.05674
G1 X63.378 Y123.435 E21.0602
G1 X63.554 Y123.601 E21.06339
G1 X63.57 Y123.616 E21.06368
G1 X63.758 Y123.765 E21.06684
G1 X63.775 Y123.779 E21.06713
G1 X63.991 Y123.93 E21.0706
G1 X64.191 Y124.049 E21.07366
G1 X64.216 Y124.064 E21.07405
G1 X64.431 Y124.174 E21.07723
G1 X64.448 Y124.183 E21.07748
G1 X64.69 Y124.286 E21.08094
G1 X64.91 Y124.361 E21.084
G1 X64.937 Y124.371 E21.08438
G1 X65.191 Y124.441 E21.08785
G1 X65.436 Y124.488 E21.09114
G1 X65.45 Y124.491 E21.09132
G1 X65.683 Y124.52 E21.09442
G1 X65.711 Y124.524 E21.09479
G1 X65.961 Y124.536 E21.09808
G1 X65.973 Y124.537 E21.09824
G1 X66.215 Y124.535 E21.10143
G1 X66.235 Y124.534 E21.10169
G1 X66.496 Y124.511 E21.10514
G1 X66.741 Y124.474 E21.10841
G1 X66.757 Y124.471 E21.10862
G1 X66.988 Y124.42 E21.11174
G1 X67.012 Y124.414 E21.11206
G1 X67.242 Y124.346 E21.11522
G1 X67.264 Y124.339 E21.11552
G1 X67.493 Y124.253 E21.11874
G1 X67.509 Y124.247 E21.11897
G1 X67.747 Y124.137 E21.12242
G1 X67.956 Y124.025 E21.12554
G1 X67.979 Y124.012 E21.12589
G1 X68.201 Y123.869 E21.12937
G1 X68.389 Y123.73 E21.13245
G1 X68.411 Y123.713 E21.13281
G1 X68.599 Y123.553 E21.13606
G1 X68.61 Y123.543 E21.13626
G1 X68.798 Y123.358 E21.13973
G1 X68.954 Y123.182 E21.14283
G1 X68.972 Y123.162 E21.14318
G1 X69.121 Y122.966 E21.14643
G1 X69.131 Y122.954 E21.14663
G1 X69.277 Y122.736 E21.15009
G1 X69.401 Y122.518 E21.15339
G1 X69.407 Y122.507 E21.15355
G1 X69.512 Y122.29 E21.15673
G1 X69.521 Y122.271 E21.157
G1 X69.614 Y122.037 E21.16032
G1 X69.618 Y122.027 E21.16046
G1 X69.691 Y121.799 E21.16361
G1 X69.699 Y121.776 E21.16393
G1 X69.757 Y121.534 E21.16721
G1 X69.76 Y121.522 E21.16737
G1 X69.802 Y121.279 E21.17062
G1 X69.805 Y121.264 E21.17082
G1 X69.83 Y121.02 E21.17405
G1 X69.832 Y121.002 E21.17429
G1 X69.84 Y120.741 E21.17773
G1 X69.832 Y120.492 E21.18101
G1 X69.806 Y120.237 E21.18439
G1 X69.765 Y119.993 E21.18764
G1 X69.763 Y119.982 E21.18779
G1 X69.702 Y119.73 E21.1912
G1 X69.623 Y119.482 E21.19463
G1 X69.528 Y119.242 E21.19803
G1 X69.418 Y119.009 E21.20142
G1 X69.291 Y118.782 E21.20485
G1 X69.15 Y118.566 E21.20824
G1 X68.995 Y118.361 E21.21163
G1 X68.825 Y118.164 E21.21505
G1 X68.64 Y117.979 E21.2185
G1 X68.446 Y117.811 E21.22188
G1 X68.24 Y117.653 E21.2253
G1 X68.021 Y117.51 E21.22874
G1 X67.796 Y117.385 E21.23213
G1 X67.564 Y117.274 E21.23552
G1 X67.515 Y117.254 E21.23621
G1 X67.323 Y117.179 E21.23893
G1 X67.076 Y117.101 E21.24234
G1 X66.826 Y117.038 E21.24573
G1 X66.57 Y116.994 E21.24915
G1 X66.312 Y116.967 E21.25257
G1 X66.241 Y116.964 E21.25351
G0 F810 X66.07 Y116.96
G0 X66.056 Y116.959
G0 X65.793 Y116.965
G0 X65.528 Y116.993
M204 S1088
G0 F3600 X65.515 Y116.894
G0 X146.715 Y116.924
G0 X147.039 Y117.012
G0 X147.334 Y117.191
G0 X147.56 Y117.439
G0 X147.714 Y117.733
G0 X147.749 Y117.905
G0 X147.84 Y126.738
G0 X147.29 Y126.738
M204 S435
;TYPE:WALL-OUTER
G1 F1050 E21.26291
G1 F900 X147.29 Y126.498 E21.26652
G1 X147.289 Y118.089 E21.39306
G1 X147.249 Y117.899 E21.39598
G1 X147.156 Y117.721 E21.399
G1 X147.02 Y117.572 E21.40204
G1 X146.845 Y117.466 E21.40512
G1 X146.65 Y117.413 E21.40816
G1 X141.55 Y117.408 E21.48491
G1 X141.31 Y117.408 E21.48852
G1 X141.31 Y117.648 E21.49086
G1 X141.31 Y118.588 E21.505
G1 X145.81 Y118.588 E21.57272
G1 X145.81 Y120.408 E21.60011
G1 X70.415 Y120.408 E22.73468
G1 X70.399 Y121.055 E22.74442
